; generated by SuperSlicer 2.3.56 on 2021-11-02 at 08:34:49 UTC

; 

; external perimeters extrusion width = 0.40mm
; perimeters extrusion width = 0.45mm
; infill extrusion width = 0.80mm
; solid infill extrusion width = 0.45mm
; top infill extrusion width = 0.42mm

; object:{"name":"OpenSCAD Model","id":"OpenSCAD Model id:0 copy 0","object_center":[125.000000,105.000001,0.000000],"boundingbox_center":[125.000000,105.000001,0.100000],"boundingbox_size":[68.108688,79.239182,0.200000]}
; plater:{"center":[125.000000,105.000001,0.000000],"boundingbox_center":[125.000000,105.000001,0.100000],"boundingbox_size":[68.108688,79.239182,0.200000]}

M73 P0 R2
;TYPE:Custom
M862.3 P "MK3S" ; printer model check
M862.1 P0.4 ; nozzle diameter check
M115 U3.9.3 ; tell printer latest fw version
G90 ; use absolute coordinates
M83 ; extruder relative mode
M104 S0 ; set extruder temp
M140 S0 ; set bed temp
M190 S0 ; wait for bed temp
M109 S0 ; wait for extruder temp
G28 W ; home all without mesh bed level
G80 ; mesh bed leveling
G1 Y-3.0 F1000.0 ; go outside print area
G92 E0.0
G1 X60.0 E9.0 F1000.0 ; intro line
M73 P3 R2
G1 X100.0 E12.5 F1000.0 ; intro line
G92 E0.0
M221 S95

; Don't change E values below. Excessive value can damage the printer.

M107
G21 ; set units to millimeters
G90 ; use absolute coordinates
M900 K0.05 ; Filament gcode LA 1.5
M900 K30 ; Filament gcode LA 1.0
;LAYER_CHANGE
;Z:0.3
;HEIGHT:0.3
;BEFORE_LAYER_CHANGE
;0.3


M73 P6 R2
G1 A-0.80000 F2100
G1 Z4.000000 F7800
;AFTER_LAYER_CHANGE
;0.3
; INIT printing object OpenSCAD Model id:0 copy 0
; printing object OpenSCAD Model id:0 copy 0
G1 X104.334 Y65.904
M73 P7 R2
G1 Z0.300000
G1 A0.80000 F2100
;TYPE:External perimeter
;WIDTH:0.4
G1 F3600
G1 X125.000 Y80.919 A1.06932
M73 P8 R2
G1 X145.666 Y65.904 A1.06932
M73 P8 R1
G1 X137.773 Y90.199 A1.06933
M73 P9 R1
G1 X158.439 Y105.214 A1.06931
G1 X132.894 Y105.214 A1.06932
M73 P10 R1
G1 X129.322 Y116.205 A0.48380
G1 X129.564 Y116.275 A0.01054
G1 X130.621 Y116.674 A0.04727
G1 X131.636 Y117.151 A0.04696
G1 X132.606 Y117.703 A0.04672
G1 X133.528 Y118.325 A0.04656
G1 X134.397 Y119.015 A0.04646
G1 X135.211 Y119.769 A0.04641
G1 X135.964 Y120.582 A0.04641
G1 X136.654 Y121.451 A0.04646
G1 X137.277 Y122.373 A0.04656
G1 X137.828 Y123.343 A0.04672
G1 X138.305 Y124.359 A0.04696
G1 X138.704 Y125.415 A0.04727
G1 X139.020 Y126.509 A0.04767
G1 X139.251 Y127.637 A0.04819
G1 X139.392 Y128.795 A0.04883
G1 X139.440 Y129.979 A0.04963
G1 X139.392 Y131.164 A0.04963
G1 X139.251 Y132.322 A0.04883
G1 X139.020 Y133.450 A0.04819
G1 X138.704 Y134.544 A0.04767
G1 X138.305 Y135.600 A0.04726
G1 X137.828 Y136.615 A0.04696
G1 X137.277 Y137.586 A0.04672
G1 X136.654 Y138.507 A0.04656
G1 X135.964 Y139.377 A0.04646
G1 X135.211 Y140.190 A0.04641
G1 X134.397 Y140.943 A0.04641
G1 X133.528 Y141.633 A0.04646
G1 X132.606 Y142.256 A0.04656
G1 X131.636 Y142.808 A0.04672
M73 P11 R1
G1 X130.621 Y143.285 A0.04696
G1 X129.564 Y143.683 A0.04727
G1 X128.470 Y144.000 A0.04767
G1 X127.343 Y144.230 A0.04819
G1 X126.185 Y144.372 A0.04883
G1 X125.000 Y144.419 A0.04963
G1 X123.815 Y144.372 A0.04963
G1 X122.657 Y144.230 A0.04883
G1 X121.530 Y144.000 A0.04819
G1 X120.436 Y143.683 A0.04767
G1 X119.379 Y143.285 A0.04727
G1 X118.364 Y142.808 A0.04695
G1 X117.394 Y142.256 A0.04672
G1 X116.472 Y141.633 A0.04656
G1 X115.603 Y140.943 A0.04646
G1 X114.789 Y140.190 A0.04641
G1 X114.036 Y139.377 A0.04641
G1 X113.346 Y138.507 A0.04646
G1 X112.723 Y137.586 A0.04656
G1 X112.172 Y136.615 A0.04672
G1 X111.695 Y135.600 A0.04696
G1 X111.296 Y134.544 A0.04726
G1 X110.980 Y133.450 A0.04767
G1 X110.749 Y132.322 A0.04819
G1 X110.608 Y131.164 A0.04883
G1 X110.560 Y129.979 A0.04963
G1 X110.608 Y128.795 A0.04963
G1 X110.749 Y127.637 A0.04883
G1 X110.980 Y126.509 A0.04819
G1 X111.296 Y125.415 A0.04767
G1 X111.695 Y124.359 A0.04727
G1 X112.172 Y123.343 A0.04696
G1 X112.723 Y122.373 A0.04672
G1 X113.346 Y121.451 A0.04656
G1 X114.036 Y120.582 A0.04646
G1 X114.789 Y119.769 A0.04641
G1 X115.603 Y119.015 A0.04641
G1 X116.472 Y118.325 A0.04646
G1 X117.394 Y117.703 A0.04656
G1 X118.364 Y117.151 A0.04672
G1 X119.379 Y116.674 A0.04695
G1 X120.436 Y116.275 A0.04727
G1 X120.678 Y116.205 A0.01054
G1 X117.106 Y105.214 A0.48380
M73 P12 R1
G1 X91.561 Y105.214 A1.06932
G1 X112.227 Y90.199 A1.06931
M73 P13 R1
G1 X104.352 Y65.961 A1.06681
;WIPE_START
G1 F6240
G1 X106.277 Y67.356 A-0.76000
;WIPE_END
G1 A-0.04000 F2100
G1 Z4.300000 F7800
G1 X105.907 Y66.562
M73 P14 R1
G1 Z0.300000
G1 A0.80000 F2100
;TYPE:Internal infill
;WIDTH:0.8
G1 F1800
G1 X105.106 Y69.553 A0.28408
G1 X104.995 Y69.211 F7800
G1 F1800
G1 X108.326 Y68.319 A0.31637
;WIPE_START
G1 F6240
G1 X106.030 Y68.934 A-0.76000
;WIPE_END
G1 A-0.04000 F2100
G1 Z4.300000 F7800
M73 P15 R1
G1 X110.828 Y70.137
G1 Z0.300000
G1 A0.80000 F2100
G1 F1800
G1 X108.328 Y79.468 A0.88632
M73 P16 R1
G1 X108.509 Y80.027 F7800
G1 F1800
G1 X120.148 Y76.908 A1.10552
G1 X120.669 Y77.287 F7800
G1 F1800
G1 X113.081 Y105.606 A2.69002
;WIPE_START
M73 P17 R1
G1 F6240
G1 X113.696 Y103.310 A-0.76000
;WIPE_END
G1 A-0.04000 F2100
G1 Z4.300000 F7800
M73 P18 R1
G1 X109.546 Y105.606
G1 Z0.300000
G1 A0.80000 F2100
G1 F1800
G1 X101.469 Y97.529 A1.04803
;WIPE_START
M73 P19 R1
G1 F6240
G1 X103.150 Y99.210 A-0.76000
;WIPE_END
G1 A-0.04000 F2100
G1 Z4.300000 F7800
G1 X103.976 Y95.708
G1 Z0.300000
M73 P20 R1
G1 A0.80000 F2100
G1 F1800
G1 X101.324 Y105.606 A0.94020
G1 X101.516 Y105.606 F7800
G1 F1800
G1 X96.818 Y100.909 A0.60958
G1 X96.677 Y101.011 F7800
G1 F1800
G1 X95.446 Y105.606 A0.43646
;WIPE_START
G1 F6240
G1 X96.061 Y103.310 A-0.76000
;WIPE_END
G1 A-0.04000 F2100
M73 P21 R1
G1 Z4.300000 F7800
G1 X93.486 Y105.606
G1 Z0.300000
G1 A0.80000 F2100
G1 F1800
G1 X92.167 Y104.288 A0.17112
;WIPE_START
G1 F6240
G1 X93.486 Y105.606 A-0.59629
;WIPE_END
M73 P22 R1
G1 A-0.20371 F2100
G1 Z4.300000 F7800
G1 X97.067 Y100.728
G1 Z0.300000
G1 A0.80000 F2100
M73 P23 R1
G1 F1800
G1 X138.359 Y89.664 A3.92223
;WIPE_START
M73 P24 R1
G1 F6240
G1 X136.063 Y90.279 A-0.76000
;WIPE_END
G1 A-0.04000 F2100
G1 Z4.300000 F7800
G1 X139.199 Y87.079
M73 P25 R1
G1 Z0.300000
G1 A0.80000 F2100
G1 F1800
G1 X129.375 Y77.255 A1.27475
;WIPE_START
M73 P26 R1
G1 F6240
G1 X131.056 Y78.936 A-0.76000
;WIPE_END
G1 A-0.04000 F2100
G1 Z4.300000 F7800
G1 X125.874 Y79.798
G1 Z0.300000
M73 P27 R1
G1 A0.80000 F2100
G1 F1800
G1 X117.993 Y109.213 A2.79407
;WIPE_START
M73 P28 R1
G1 F6240
G1 X118.608 Y106.917 A-0.76000
;WIPE_END
G1 A-0.04000 F2100
G1 Z4.300000 F7800
G1 X117.295 Y107.065
G1 Z0.300000
M73 P29 R1
G1 A0.80000 F2100
G1 F1800
G1 X149.703 Y98.381 A3.07834
M73 P30 R1
G1 X150.192 Y98.736 F7800
G1 F1800
G1 X148.351 Y105.606 A0.65256
;WIPE_START
G1 F6240
G1 X148.966 Y103.310 A-0.76000
;WIPE_END
G1 A-0.04000 F2100
G1 Z4.300000 F7800
M73 P31 R1
G1 X149.697 Y105.606
G1 Z0.300000
G1 A0.80000 F2100
G1 F1800
G1 X123.257 Y79.167 A3.43066
;WIPE_START
M73 P32 R1
G1 F6240
G1 X124.938 Y80.848 A-0.76000
;WIPE_END
G1 A-0.04000 F2100
G1 Z4.300000 F7800
M73 P33 R1
G1 X115.748 Y73.712
G1 Z0.300000
G1 A0.80000 F2100
G1 F1800
G1 X111.549 Y89.383 A1.48857
;WIPE_START
M73 P34 R1
G1 F6240
G1 X112.165 Y87.087 A-0.76000
;WIPE_END
G1 A-0.04000 F2100
G1 Z4.300000 F7800
G1 X111.276 Y90.405
M73 P35 R1
G1 Z0.300000
G1 A0.80000 F2100
G1 F1800
G1 X107.202 Y105.606 A1.44395
;WIPE_START
M73 P36 R1
G1 F6240
G1 X107.818 Y103.310 A-0.76000
;WIPE_END
G1 A-0.04000 F2100
G1 Z4.300000 F7800
G1 X100.798 Y105.606
G1 Z0.300000
M73 P37 R1
G1 A0.80000 F2100
G1 F1800
G1 X143.792 Y94.086 A4.08381
;WIPE_START
M73 P38 R1
G1 F6240
G1 X141.495 Y94.702 A-0.76000
;WIPE_END
G1 A-0.04000 F2100
G1 Z4.300000 F7800
M73 P39 R1
G1 X145.271 Y95.162
G1 Z0.300000
G1 A0.80000 F2100
G1 F1800
G1 X142.473 Y105.606 A0.99213
M73 P40 R1
G1 X141.667 Y105.606 F7800
G1 F1800
G1 X104.862 Y68.802 A4.77551
;WIPE_START
M73 P41 R1
G1 F6240
G1 X106.543 Y70.483 A-0.76000
;WIPE_END
G1 A-0.04000 F2100
G1 Z4.300000 F7800
M73 P42 R1
G1 X106.752 Y74.619
G1 Z0.300000
G1 A0.80000 F2100
G1 F1800
G1 X114.237 Y72.614 A0.71095
;WIPE_START
M73 P43 R1
G1 F6240
G1 X111.941 Y73.229 A-0.76000
;WIPE_END
G1 A-0.04000 F2100
G1 Z4.300000 F7800
G1 X108.727 Y80.697
G1 Z0.300000
M73 P44 R1
G1 A0.80000 F2100
G1 F1800
G1 X133.636 Y105.606 A3.23210
;WIPE_START
M73 P45 R1
G1 F6240
G1 X131.956 Y103.926 A-0.76000
;WIPE_END
G1 A-0.04000 F2100
G1 Z4.300000 F7800
G1 X136.594 Y105.606
M73 P46 R1
G1 Z0.300000
G1 A0.80000 F2100
G1 F1800
G1 X140.351 Y91.587 A1.33170
;WIPE_START
G1 F6240
G1 X139.736 Y93.883 A-0.76000
;WIPE_END
M73 P47 R1
G1 A-0.04000 F2100
G1 Z4.300000 F7800
G1 X140.452 Y83.225
G1 Z0.300000
M73 P48 R1
G1 A0.80000 F2100
G1 F1800
G1 X109.886 Y91.415 A2.90336
;WIPE_START
M73 P49 R1
G1 F6240
G1 X112.182 Y90.799 A-0.76000
;WIPE_END
G1 A-0.04000 F2100
G1 Z4.300000 F7800
G1 X110.771 Y90.771
G1 Z0.300000
M73 P50 R1
G1 A0.80000 F2100
G1 F1800
G1 X131.322 Y111.322 A2.66656
;WIPE_START
M73 P51 R1
G1 F6240
G1 X129.641 Y109.641 A-0.76000
;WIPE_END
G1 A-0.04000 F2100
G1 Z4.300000 F7800
G1 X132.083 Y108.981
G1 Z0.300000
M73 P52 R1
G1 A0.80000 F2100
G1 F1800
G1 X119.052 Y112.472 A1.23780
;WIPE_START
G1 F6240
G1 X121.348 Y111.857 A-0.76000
;WIPE_END
G1 A-0.04000 F2100
G1 Z4.300000 F7800
M73 P53 R1
G1 X119.971 Y116.031
G1 Z0.300000
G1 A0.80000 F2100
G1 F1800
G1 X138.948 Y135.008 A2.46244
;WIPE_START
M73 P54 R1
G1 F6240
G1 X137.268 Y133.328 A-0.76000
;WIPE_END
G1 A-0.04000 F2100
G1 Z4.300000 F7800
M73 P55 R1
G1 X138.208 Y136.731
G1 Z0.300000
G1 A0.80000 F2100
G1 F1800
G1 X116.947 Y142.428 A2.01954
;WIPE_START
M73 P56 R1
G1 F6240
G1 X119.243 Y141.813 A-0.76000
;WIPE_END
G1 A-0.04000 F2100
G1 Z4.300000 F7800
G1 X115.300 Y141.199
G1 Z0.300000
M73 P57 R1
G1 A0.80000 F2100
G1 F1800
G1 X133.174 Y74.495 A6.33607
;WIPE_START
M73 P59 R1
G1 F6240
G1 X132.559 Y76.791 A-0.76000
;WIPE_END
G1 A-0.04000 F2100
G1 Z4.300000 F7800
M73 P60 R1
G1 X134.026 Y73.876
G1 Z0.300000
G1 A0.80000 F2100
G1 F1800
G1 X141.168 Y81.018 A0.92679
;WIPE_START
M73 P61 R1
G1 F6240
G1 X139.488 Y79.337 A-0.76000
;WIPE_END
G1 A-0.04000 F2100
G1 Z4.300000 F7800
G1 X142.544 Y76.786
G1 Z0.300000
M73 P62 R1
G1 A0.80000 F2100
G1 F1800
G1 X110.266 Y85.434 A3.06593
;WIPE_START
M73 P63 R1
G1 F6240
G1 X112.563 Y84.819 A-0.76000
;WIPE_END
G1 A-0.04000 F2100
G1 Z4.300000 F7800
G1 X106.120 Y94.150
G1 Z0.300000
M73 P64 R1
G1 A0.80000 F2100
G1 F1800
G1 X139.652 Y127.682 A4.35094
;WIPE_START
M73 P66 R1
G1 F6240
G1 X137.971 Y126.002 A-0.76000
;WIPE_END
G1 A-0.04000 F2100
G1 Z4.300000 F7800
G1 X139.815 Y130.422
G1 Z0.300000
M73 P67 R1
G1 A0.80000 F2100
G1 F1800
G1 X112.378 Y137.774 A2.60616
;WIPE_START
M73 P68 R1
G1 F6240
G1 X114.675 Y137.159 A-0.76000
;WIPE_END
G1 A-0.04000 F2100
G1 Z4.300000 F7800
G1 X111.069 Y135.054
G1 Z0.300000
M73 P69 R1
G1 A0.80000 F2100
G1 F1800
G1 X115.473 Y118.616 A1.56135
M73 P69 R0
G1 X114.973 Y119.063 F7800
G1 F1800
G1 X135.916 Y140.006 A2.71751
;WIPE_START
M73 P70 R0
G1 F6240
G1 X134.235 Y138.326 A-0.76000
;WIPE_END
G1 A-0.04000 F2100
G1 Z4.300000 F7800
M73 P71 R0
G1 X132.518 Y142.758
G1 Z0.300000
G1 A0.80000 F2100
G1 F1800
G1 X137.900 Y122.674 A1.90778
;WIPE_START
M73 P72 R0
G1 F6240
G1 X137.284 Y124.970 A-0.76000
;WIPE_END
G1 A-0.04000 F2100
G1 Z4.300000 F7800
G1 X138.889 Y124.792
M73 P73 R0
G1 Z0.300000
G1 A0.80000 F2100
G1 F1800
G1 X110.371 Y132.433 A2.70885
;WIPE_START
M73 P74 R0
G1 F6240
G1 X112.667 Y131.818 A-0.76000
;WIPE_END
G1 A-0.04000 F2100
G1 Z4.300000 F7800
G1 X110.181 Y130.331
M73 P75 R0
G1 Z0.300000
G1 A0.80000 F2100
G1 F1800
G1 X124.648 Y144.798 A1.87719
;WIPE_START
M73 P76 R0
G1 F6240
G1 X122.967 Y143.117 A-0.76000
;WIPE_END
G1 A-0.04000 F2100
G1 Z4.300000 F7800
G1 X126.101 Y144.768
G1 Z0.300000
M73 P77 R0
G1 A0.80000 F2100
G1 F1800
G1 X133.346 Y117.728 A2.56843
;WIPE_START
M73 P78 R0
G1 F6240
G1 X132.731 Y120.024 A-0.76000
;WIPE_END
G1 A-0.04000 F2100
G1 Z4.300000 F7800
G1 X135.737 Y119.758
G1 Z0.300000
M73 P79 R0
G1 A0.80000 F2100
G1 F1800
G1 X110.581 Y126.499 A2.38950
;WIPE_START
M73 P80 R0
G1 F6240
G1 X112.877 Y125.884 A-0.76000
;WIPE_END
G1 A-0.04000 F2100
G1 Z4.300000 F7800
G1 X111.573 Y123.693
G1 Z0.300000
M73 P81 R0
G1 A0.80000 F2100
G1 F1800
G1 X131.286 Y143.406 A2.55784
;WIPE_START
M73 P82 R0
G1 F6240
G1 X129.605 Y141.725 A-0.76000
;WIPE_END
G1 A-0.04000 F2100
G1 Z4.300000 F7800
G1 X120.406 Y144.084
G1 Z0.300000
M73 P83 R0
G1 A0.80000 F2100
G1 F1800
G1 X140.473 Y69.191 A7.11380
;WIPE_START
M73 P85 R0
G1 F6240
G1 X139.858 Y71.488 A-0.76000
;WIPE_END
G1 A-0.04000 F2100
G1 Z4.300000 F7800
M73 P86 R0
G1 X138.677 Y70.497
G1 Z0.300000
G1 A0.80000 F2100
G1 F1800
G1 X143.138 Y74.957 A0.57882
;WIPE_START
G1 F6240
G1 X141.457 Y73.277 A-0.76000
;WIPE_END
M73 P87 R0
G1 A-0.04000 F2100
G1 Z4.300000 F7800
G1 X144.636 Y70.347
G1 Z0.300000
G1 A0.80000 F2100
G1 F1800
G1 X135.522 Y72.789 A0.86570
;WIPE_START
M73 P88 R0
G1 F6240
G1 X137.818 Y72.173 A-0.76000
;WIPE_END
G1 A-0.04000 F2100
G1 Z4.300000 F7800
G1 X143.328 Y67.118
G1 Z0.300000
M73 P89 R0
G1 A0.80000 F2100
G1 F1800
G1 X145.107 Y68.897 A0.23086
;WIPE_START
G1 F6240
G1 X143.426 Y67.216 A-0.76000
;WIPE_END
G1 A-0.04000 F2100
G1 Z4.300000 F7800
G1 X152.622 Y100.502
M73 P90 R0
G1 Z0.300000
G1 A0.80000 F2100
G1 F1800
G1 X157.727 Y105.606 A0.66228
;WIPE_START
M73 P91 R0
G1 F6240
G1 X156.046 Y103.926 A-0.76000
;WIPE_END
G1 A-0.04000 F2100
G1 Z4.300000 F7800
G1 X154.229 Y105.606
G1 Z0.300000
G1 A0.80000 F2100
M73 P92 R0
G1 F1800
G1 X155.112 Y102.311 A0.31299
G1 X155.614 Y102.676 F7800
G1 F1800
G1 X144.675 Y105.606 A1.03901
;WIPE_START
G1 F6240
G1 X146.971 Y104.991 A-0.76000
;WIPE_END
G1 A-0.04000 F2100
G1 Z4.300000 F7800
M73 P93 R0
G1 X129.991 Y115.420
G1 Z0.300000
G1 A0.80000 F2100
G1 F1800
G1 X114.417 Y119.593 A1.47932
; INIT stop printing object OpenSCAD Model id:0 copy 0
;WIPE_START
M73 P94 R0
G1 F6240;_WIPE
G1 X116.713 Y118.977 A-0.76000
;WIPE_END
G1 A-0.04000 F2100
G1 Z4.300000 F7800
; stop printing object OpenSCAD Model id:0 copy 0
;TYPE:Custom
; Filament-specific end gcode
G4 ; wait
M221 S100 ; reset flow
M900 K0 ; reset LA

M104 S0 ; turn off temperature
M140 S0 ; turn off heatbed
M107 ; turn off fan
G1 Z30.3 ; Move print head up
M73 P97 R0
G1 X0 Y200 F3000 ; home X axis
M84 ; disable motors
M73 P100 R0
; filament used [mm] = 113.80
; filament used [cm3] = 0.27
; filament used [g] = 0.34
; filament cost = 0.01
; total filament used [g] = 0.34
; total filament cost = 0.01
; estimated printing time (normal mode) = 1m 38s

; allow_empty_layers = 0
; avoid_crossing_not_first_layer = 1
; avoid_crossing_perimeters = 0
; avoid_crossing_perimeters_max_detour = 0
; bed_custom_model = 
; bed_custom_texture = 
; bed_shape = 0x0,250x0,250x210,0x210
; bed_temperature = 0
; before_layer_gcode = ;BEFORE_LAYER_CHANGE\n;[layer_z]\n\n
; between_objects_gcode = 
; bottom_fill_pattern = rectilinear
; bottom_solid_layers = 0
; bottom_solid_min_thickness = 0
; bridge_acceleration = 0
; bridge_angle = 0
; bridge_fan_speed = 100
; bridge_flow_ratio = 100%
; bridge_overlap = 100%
; bridge_speed = 60
; bridge_speed_internal = 150%
; bridged_infill_margin = 200%
; brim_ears = 0
; brim_ears_detection_length = 1
; brim_ears_max_angle = 125
; brim_ears_pattern = concentric
; brim_inside_holes = 0
; brim_offset = 0
; brim_width = 0
; brim_width_interior = 0
; chamber_temperature = 0
; clip_multipart_objects = 1
; color_change_gcode = M600
; compatible_printers_condition_cummulative = ;"nozzle_diameter[0]!=0.8 and ! (printer_notes=~/.*PRINTER_VENDOR_PRUSA3D.*/ and printer_notes=~/.*PRINTER_MODEL_MK(2.5|3).*/ and single_extruder_multi_material)"
; complete_objects = 0
; complete_objects_one_skirt = 0
; complete_objects_sort = object
; cooling = 1
; cooling_tube_length = 5
; cooling_tube_retraction = 91.5
; curve_smoothing_angle_concave = 0
; curve_smoothing_angle_convex = 0
; curve_smoothing_cutoff_dist = 2
; curve_smoothing_precision = 0
; default_acceleration = 0
; default_filament_profile = "Prusament PLA"
; default_print_profile = 0.15mm QUALITY @MK3
; deretract_speed = 0
; disable_fan_first_layers = 1
; dont_support_bridges = 1
; draft_shield = 0
; duplicate_distance = 6
; end_filament_gcode = "; Filament-specific end gcode"
